!!!COM: Bach, Johann Sebastian
!!!OPR: Joh. Seb. Bachs vierstimmige Choralges‰nge
!!!XEN: Four-part Chorales
!!!OTL: 107. Jesu, meiner Seelen Wonne
!!!SCT: BWV 360
!!!SCA: Thematisch-systematisches Verzeichnis der musikalischen Werke Johann Sebastian Bach: Bach-Werke-Verzeichnis (Schmieder)
!!!YOR: Bach Gesellschaft Edition xxxix
!!!ENC: Steven Rasmussen
!!!CDT: 1685/3//-1750/7/28/
!!!OCY: Deutschland
!!!YEC: Copyright (c) 1994, 2000 Center for Computer Assisted Research in the Humanities
!!!YEM: Rights to all derivative editions reserved
!!!YEN: United States of America
**kern	**silbe	**kern	**kern	**kern
*I:[SOPRANO]	*I:[SOPRANO]	*I:[ALTO]	*I:[TENORE]	*I:[BASSO]
*>[A,A,B]	*	*>[A,A,B]	*>[A,A,B]	*>[A,A,B]
*>A	*	*>A	*>A	*>A
*clefG2	*	*clefG2	*clefGv2	*clefF4
*k[b-e-]	*	*k[b-e-]	*k[b-e-]	*k[b-e-]
*B-:	*	*B-:	*B-:	*B-:
*M4/4	*	*M4/4	*M4/4	*M4/4
=1-	=1-	=1-	=1-	=1-
4dd	Je-Je-(Je-Je-?	4b-	4f	4B-
4ee-	-su,-su,-su,-su,	4b-	8B-L	4G
.	.	.	8cJ	.
4ff	mei-mei-mei-mei-	4a	4d	4D
4ff	-ner-ne-ner-ner	8b-L	4d	4G
.	.	8aJ	.	.
=2	=2	=2	=2	=2
4ee-	See-Freu-Freu-See-	8gL	4e-	4C
.	.	8aJ	.	.
4dd	-len-den--den-len	4b-	4f	4BB-
4cc	Won--son-Freu-Wei-	4a	4f	4F
4cc;	-ne,-ne,-de,-de,	4a;	4f;	4F;
=3	=3	=3	=3	=3
4dd	Je-Je-Je-Je-	4b-	4f	4BB-
4ee-	-su,-su,-su,-su,	8aL	4e-	4C
.	.	8gJ	.	.
4ff	mei-dirmei-mei-	4f	8dL	4D
.	.	.	8cJ	.
4dd	-neist-nes-ne	4g	4B-	8GL
.	.	.	.	8FJ
=4	=4	=4	=4	=4
4.cc	be-jaGlau-Zu-	4g	4B-	4E-
.	.	4f	4A	4F
8cc	-stebe--bens-ver-	.	.	.
2b-;	Lust,-wusst,Licht,-sicht,	2f;	2d;	2BB-;
=5:|!	=5:|!	=5:|!	=5:|!	=5:|!
*>B	*	*>B	*>B	*>B
4cc	wieo	4a	4f	4F
4dd	ichwie	4bn	4F	4D
4ee-	dichk√∂mmt	4cc	4G	8CL
.	.	.	.	8DJ
4ee-	sodein	4g	4c	8E-L
.	.	.	.	8FJ
=6	=6	=6	=6	=6
4.dd	herz-Na-	4g	8cL	4G
.	.	.	8AJ	.
.	.	8fL	4Bn	4GG
8cc	-lich-me	8e-J	.	.
2cc;	lieb'mir	2e-;	2G;	2C;
=7	=7	=7	=7	=7
4ee-	unso	4g	4c	4c
4ff	michge-	4b-	4d	8B-L
.	.	.	.	8A-J
4gg	oh--w√ºnscht	4b-	4e-	8GL
.	.	.	.	8FJ
4gg	-neund	4b-	4e-	4E-
=8	=8	=8	=8	=8
4gg	dichlieb-	4b-	8e-L	4B-
.	.	.	8cJ	.
8.ffL	be--lich	8b-L	4d	4BB-
.	.	8a-J	.	.
16ee-Jk	.	.	.	.
2ee-;	-tr√ºb';f√ºr.	2g;	2B-;	2E-;
=9	=9	=9	=9	=9
4dd	d'rum,Dein	4g	4B-	4G
4ee-	oGe-	4g	4B-	8FL
.	.	.	.	8E-J
4ff	Je--d√§cht-	4f	8B-L	4D
.	.	.	8A-J	.
4b-	-su,-niss,	4e-	4G	4E-
=10	=10	=10	=10	=10
4ee-	kommJe-	4f	4c	4AA
4dd	zu-su,	4f	4B-	4BB-
4cc	mir,ma-	4f	4A	4F
4cc;	|-chet,	4f;	4A;	4F;
=11	=11	=11	=11	=11
4dd	unddass	4f	4B-	4B-
4ee-	bleib'mein	4g	4B-	8AL
.	.	.	.	8GJ
4ff	beitrau-	4f	4c	8AL
.	.	.	.	8FJ
4dd	mir-rig's	4f	4B-	4B-
=12	=12	=12	=12	=12
4cc	f√ºrHer-	4g	4B-	4E-
4cc	und-ze	4f	4A	4F
4b-	f√ºr!la-	4f	4d	4BB-
4b-;	|-chet.)	4f;	4d;	4BB-;
==|!	==|!	==|!	==|!	==|!
!!!RNB1: * Alternative text, "Jesu, meiner Freuden Freude / Jesu, meiner Seelen Weide"
*-	*-	*-	*-	*-
!!!RWG: Key is interpreted using the Humdrum key tool.
!!!END: 1994/07/08
!!!EMD: Converted from MuseData to Humdrum Dec 19, 2000, by Andreas Kornstaedt using muse2kern.
!!!EED: Craig Stuart Sapp
!!!EEV: 2024/03/31
!!!ONB: Some non-unicode characters
